X:20
T:Litanies des saints
M:6/8
L:1/8
K:C
C D|EEE EEF|GGG GGG|AGF EEE|[M:9/8]EDC D3 D
w:Saints et|sain-tes de Dieu, dont la|vie et la mort ont cri-| J-sus Christ sur les rou-tes du mon-de,
C D|[M:6/8]EEE E2C|[M:9/8]D2D E3 z C D|[M:6/8]EEE E2C|D2D HE3||
w:saints et|sain-tes de Dieu, pri-|ez pour nous. Saint et|sain-tes de Dieu, pri-|ez pour nous.
